X:1525
L:1/8
M:2/4
K:E
 (b2 g).e | (b2 a).f | bgeg | .f(f/g/) ff | (b2 g).e | (b2 a).f | gefd | e2 z2 || f>ga<f | gabb | 
 afge | !fermata!d(B/d/) (c/e/)(d/f/) | (b2 g).e | (b2 g).f | bgeg | .f(f/g/)ff | (b2 g).e | 
 (b2 a).f | gefd | e2 z2 ||

